packages/foundations/assets/icons/functional/images/environment/sun_14_filled.svg

<svg width="14" height="14" viewBox="0 0 14 14" fill="none" xmlns="http://www.w3.org/2000/svg">
<g clip-path="url(#clip0_2204_3022)">
<path fill-rule="evenodd" clip-rule="evenodd" d="M7.00002 10.5C7.38662 10.5 7.70002 10.8134 7.70002 11.2V11.9C7.70002 12.2866 7.38662 12.6 7.00002 12.6C6.61342 12.6 6.30002 12.2866 6.30002 11.9V11.2C6.30002 10.8134 6.61342 10.5 7.00002 10.5ZM10.4648 9.47487L10.9598 9.96984C11.2332 10.2432 11.2332 10.6864 10.9598 10.9598C10.6865 11.2332 10.2432 11.2332 9.96987 10.9598L9.4749 10.4648C9.20153 10.1915 9.20153 9.74823 9.4749 9.47487C9.74827 9.2015 10.1915 9.2015 10.4648 9.47487ZM4.03018 9.26984L4.13732 9.27804C4.27928 9.29991 4.4158 9.36552 4.52515 9.47487C4.79852 9.74823 4.79852 10.1915 4.52515 10.4648L4.03018 10.9598C3.92083 11.0691 3.78431 11.1347 3.64235 11.1566L3.5352 11.1648C3.35606 11.1648 3.17691 11.0965 3.04023 10.9598C2.76686 10.6864 2.76686 10.2432 3.04023 9.96984L3.5352 9.47487C3.67188 9.33818 3.85103 9.26984 4.03018 9.26984ZM7.00002 4.19999C8.54642 4.19999 9.80002 5.4536 9.80002 6.99999C9.80002 8.54639 8.54642 9.79999 7.00002 9.79999C5.45363 9.79999 4.20002 8.54639 4.20002 6.99999C4.20002 5.4536 5.45363 4.19999 7.00002 4.19999ZM11.9 6.29999C12.2866 6.29999 12.6 6.61339 12.6 6.99999C12.6 7.38659 12.2866 7.69999 11.9 7.69999H11.2C10.8134 7.69999 10.5 7.38659 10.5 6.99999C10.5 6.61339 10.8134 6.29999 11.2 6.29999H11.9ZM2.80002 6.29999C3.18662 6.29999 3.50002 6.61339 3.50002 6.99999C3.50002 7.38659 3.18662 7.69999 2.80002 7.69999H2.10002C1.71343 7.69999 1.40002 7.38659 1.40002 6.99999C1.40002 6.61339 1.71343 6.29999 2.10002 6.29999H2.80002ZM4.03018 3.0402L4.52515 3.53517C4.79852 3.80854 4.79852 4.25175 4.52515 4.52512C4.25178 4.79849 3.80857 4.79849 3.5352 4.52512L3.04023 4.03015C2.76686 3.75678 2.76686 3.31356 3.04023 3.0402C3.31359 2.76683 3.75681 2.76683 4.03018 3.0402ZM10.4648 2.83517L10.572 2.84337C10.714 2.86524 10.8505 2.93085 10.9598 3.0402C11.2332 3.31356 11.2332 3.75678 10.9598 4.03015L10.4648 4.52512C10.3555 4.63447 10.219 4.70007 10.077 4.72194L9.96987 4.73015C9.79073 4.73015 9.61158 4.6618 9.4749 4.52512C9.20153 4.25175 9.20153 3.80854 9.4749 3.53517L9.96987 3.0402C10.1066 2.90351 10.2857 2.83517 10.4648 2.83517ZM7.00002 1.39999C7.38662 1.39999 7.70002 1.71339 7.70002 2.09999V2.79999C7.70002 3.18659 7.38662 3.49999 7.00002 3.49999C6.61342 3.49999 6.30002 3.18659 6.30002 2.79999V2.09999C6.30002 1.71339 6.61342 1.39999 7.00002 1.39999Z" fill="#1A1C1F"/>
</g>
<defs>
<clipPath id="clip0_2204_3022">
<rect width="14" height="14" fill="white"/>
</clipPath>
</defs>
</svg>

<svg xmlns="http://www.w3.org/2000/svg" width="14" height="14" fill="none"><g clip-path="url(#a)"><path fill="#1A1C1F" fill-rule="evenodd" d="M7 10.5a.7.7 0 0 1 .7.7v.7a.7.7 0 1 1-1.4 0v-.7a.7.7 0 0 1 .7-.7m3.465-1.025.495.495a.7.7 0 1 1-.99.99l-.495-.495a.7.7 0 1 1 .99-.99M4.03 9.27l.107.008a.7.7 0 0 1 .388 1.187l-.495.495a.7.7 0 0 1-.388.197l-.107.008A.7.7 0 0 1 3.04 9.97l.495-.495a.7.7 0 0 1 .495-.205M7 4.2a2.8 2.8 0 1 1 0 5.6 2.8 2.8 0 0 1 0-5.6m4.9 2.1a.7.7 0 1 1 0 1.4h-.7a.7.7 0 1 1 0-1.4zm-9.1 0a.7.7 0 1 1 0 1.4h-.7a.7.7 0 0 1 0-1.4zm1.23-3.26.495.495a.7.7 0 1 1-.99.99L3.04 4.03a.7.7 0 1 1 .99-.99m6.435-.205.107.008a.7.7 0 0 1 .388 1.187l-.495.495a.7.7 0 0 1-.388.197l-.107.008a.7.7 0 0 1-.495-1.195l.495-.495a.7.7 0 0 1 .495-.205M7 1.4a.7.7 0 0 1 .7.7v.7a.7.7 0 1 1-1.4 0v-.7a.7.7 0 0 1 .7-.7" clip-rule="evenodd"/></g><defs><clipPath id="a"><path fill="#fff" d="M0 0h14v14H0z"/></clipPath></defs></svg>
